X:180
T:Huntsmans Chorus,The. JGi.180
M:2/4
L:1/8
Q:1/4=110
S:Joshua Gibbons MS,1823,Tealby,Lincs.
N:Some problems here.
R:Air
O:Tealby,Lincolnshire
Z:VMP/R.Greig, 2009
K:C
G|c2(c/d/e/f/)|g2ee|.dg.dg|(d/f/e/d/) cG|c2(c/d/e/f/)|
g2e.e|(e/d/c/d/) edc2::dgbg|f2::d”As in MS”e2ee|c2cc|f2ff|d2dd|
e2ee|f2ee|(e/d/c/d/).e.d|c3::G|GG/G/ GG/G/|GG/G/ GG/G/|
(c2G)e|(c2G)e|{g}fd {g}fd|{g}fd {g}fd|(cG)e|(cG)e|
{g}fd {g}fd|{g}fd {g}fd|ec/e/ g2|ec/e/g2|ec/c/”As in MS” ce||

